X: 1062
T: A Theater Tune.
%R: air, waltz, jig
B: Henry Playford "Apollo's Banquet", London 1687 (5th Edition)
F: https://archive.org/details/apollosbanquetco01rugg
Z: 2017 John Chambers <jc:trillian.mit.edu>
M: 3/2
L: 1/8
K: C
% - - - - - - - - - -
G2 |\
c4d2 e4d2 | c2B4 A4G2 | c4d2 e4d2 | c2f4 d4G2 |\
c4d2 e4d2 | c2B4 A4d2 | B4c2 d3ef2 | e4(dc) c4 :|
|: d2 |\
e4f2 g4d2 | e2d4 c4B2 | e4f2 d2g4 | a3g^f2 g4fe |\
f4g2 a2g4 | e3dc2 d3ef2 | A4G2 E2c4 | D4C2 C4 |]
% - - - - - - - - - -

%%sep 1 1 500
%%sep 1 1 500

